static/app-icons/light-theme/WatsonStudio.svg

<svg xmlns="http://www.w3.org/2000/svg" viewBox="0 0 32 32"><defs><linearGradient id="linear-gradient" x1="1060" y1="-4442" x2="1067" y2="-4442" gradientTransform="translate(-1048.5 4459.5)" gradientUnits="userSpaceOnUse"><stop offset="0" stop-opacity="0"/><stop offset=".7"/></linearGradient><linearGradient id="linear-gradient-2" y1="32" x2="32" gradientUnits="userSpaceOnUse"><stop offset=".1" stop-color="#a56eff"/><stop offset=".9" stop-color="#0f62fe"/></linearGradient><style>.cls-1{fill:#fff}.cls-3{fill:#f3f3f3}</style><mask id="mask" x="0" y="0" width="32" height="32" maskUnits="userSpaceOnUse"><path class="cls-1" d="M12 28h-2v-2h2v-5.007A5.994 5.994 0 0118 15v2a3.993 3.993 0 00-4 3.993V26a2 2 0 01-2 2z"/><path transform="rotate(-90 15 17.5)" fill="url(#linear-gradient)" d="M11.5 13.5h7v8h-7z"/><path class="cls-1" d="M18 17a5.994 5.994 0 01-6-5.993V6h-2V4h2a2 2 0 012 2v5.005A3.993 3.993 0 0018 15v2z"/><path class="cls-3" d="M8 30H2v-6h6zm-4-2h2v-2H4zM8 19H2v-6h6zm-4-2h2v-2H4zM8 8H2V2h6zM4 6h2V4H4z"/></mask></defs><g id="Layer_2" data-name="Layer 2"><g id="Light_theme_icons" data-name="Light theme icons"><g mask="url(#mask)"><path fill="url(#linear-gradient-2)" d="M0 0h32v32H0z"/></g><path d="M25 21a5 5 0 115-5 5.006 5.006 0 01-5 5zm0-8a3 3 0 103 3 3 3 0 00-3-3z" fill="#001d6c"/></g></g></svg>

<svg xmlns="http://www.w3.org/2000/svg" xmlns:xlink="http://www.w3.org/1999/xlink" viewBox="0 0 32 32"><defs><style>.cls-1{fill:#fff;}.cls-2{fill:url(#linear-gradient);}.cls-3{fill:#f3f3f3;}.cls-4{mask:url(#mask);}.cls-5{fill:url(#linear-gradient-2);}.cls-6{fill:#001d6c;}</style><linearGradient id="linear-gradient" x1="1060" y1="-4442" x2="1067" y2="-4442" gradientTransform="translate(-1048.5 4459.5)" gradientUnits="userSpaceOnUse"><stop offset="0" stop-opacity="0"/><stop offset="0.7"/></linearGradient><mask id="mask" x="0" y="0" width="32" height="32" maskUnits="userSpaceOnUse"><path class="cls-1" d="M12,28H10V26h2l0-5.007A5.994,5.994,0,0,1,18,15H18l0,2h0A3.993,3.993,0,0,0,14,20.993V26A2,2,0,0,1,12,28Z"/><rect class="cls-2" x="11.5" y="13.5" width="7" height="8" transform="translate(-2.5 32.5) rotate(-90)"/><path class="cls-1" d="M18,17A5.994,5.994,0,0,1,12,11.007V6L10,6V4h2a2,2,0,0,1,2,2v5.005A3.993,3.993,0,0,0,18,15h0l0,2Z"/><path class="cls-3" d="M8,30H2V24H8ZM4,28H6V26H4Z"/><path class="cls-3" d="M8,19H2V13H8ZM4,17H6V15H4Z"/><path class="cls-3" d="M8,8H2V2H8ZM4,6H6V4H4Z"/></mask><linearGradient id="linear-gradient-2" y1="32" x2="32" gradientUnits="userSpaceOnUse"><stop offset="0.1" stop-color="#a56eff"/><stop offset="0.9" stop-color="#0f62fe"/></linearGradient></defs><g id="Layer_2" data-name="Layer 2"><g id="Light_theme_icons" data-name="Light theme icons"><g class="cls-4"><rect class="cls-5" width="32" height="32"/></g><path class="cls-6" d="M25,21a5,5,0,1,1,5-5A5.006,5.006,0,0,1,25,21Zm0-8a3,3,0,1,0,3,3A3,3,0,0,0,25,13Z"/></g></g></svg>
